!!!OTL: DER DEUTSCH-FRANZOS BEKLAGT SICH SEHR
!!!ARE: Europa, Mitteleuropa, Deutschland
!!!SCT: E0311
!!!YEM: Copyright 1995, estate of Helmut Schaffrath.
**kern
*ICvox
*Ivox
*M4/4
*k[b-]
*F:
{4a
=1
4g
4f
4g
4a
=2
4b-
4a
4g}
{4a
=3
4g
4f
4e
4f
=4
2g
4f}
{4a
=5
4g
4f
4g
4a
=6
4b-
4a
4g}
{4a
=7
4g
4f
4e
4f
=8
2g
4f}
{4f
=9
4g
4a
4b-
4a
=10
4g
4f
4g}
{4a
=11
4g
4f
4e
4f
=12
2g
4f}
{4f
=13
4d
4e
4f
4f
=14
4g
4a
4f}
{4a
=15
4g
4f
4e
4f
=16
2g
4f}
==
!!!AGN: historisches Lied, Spott - Lied
!!!ONB: ESAC (Essen Associative Code) Database: ERK1
!!!AMT: simple quadruple
!!!AIN: vox
!!!EED: Helmut Schaffrath
!!!EEV: 1.0
*-
